public/icons/right__chevron.svg

<svg width="96" height="96" viewBox="0 0 96 96" fill="none" xmlns="http://www.w3.org/2000/svg">
<circle cx="48" cy="48" r="46.7013" fill="#A5958B" fill-opacity="0.1" stroke="#E2E2E2" strokeWidth="2.59735"/>
<path d="M53.424 48.1206C54.1847 48.8813 54.1847 50.1148 53.424 50.8755L41.0269 63.2726C40.2662 64.0333 39.0327 64.0333 38.272 63.2726C37.5112 62.5118 37.5112 61.2784 38.272 60.5177L49.2916 49.498L38.272 38.4784C37.5112 37.7177 37.5112 36.4843 38.272 35.7235C39.0327 34.9628 40.2662 34.9628 41.0269 35.7235L53.424 48.1206ZM48.0508 49.498V47.55H52.0465V49.498V51.4461H48.0508V49.498Z" fill="#A5958B"/>
</svg>

<svg xmlns="http://www.w3.org/2000/svg" width="96" height="96" fill="none"><circle cx="48" cy="48" r="46.701" fill="#A5958B" fill-opacity=".1" stroke="#E2E2E2"/><path fill="#A5958B" d="M53.424 48.12c.76.761.76 1.995 0 2.756L41.027 63.273a1.948 1.948 0 0 1-2.755-2.755l11.02-11.02-11.02-11.02a1.948 1.948 0 1 1 2.755-2.755l12.397 12.398Zm-5.373 1.378V47.55h3.995v3.896h-3.995v-1.948Z"/></svg>
